projects/oblique/icons/GenderIdentityBigender.svg

<?xml version="1.0" encoding="UTF-8"?><svg id="a" xmlns="http://www.w3.org/2000/svg" viewBox="0 0 24 24"><path d="M12.3916,1.625v1.5h3.91785l-3.36108,3.48438c-.83173-.60742-1.82281-.94824-2.87317-.94824-1.30859,0-2.53906.50977-3.46484,1.43457-.92578.92578-1.43555,2.15625-1.43555,3.46582,0,1.30859.50977,2.53906,1.43555,3.46484.74561.74512,1.69238,1.20508,2.71484,1.36133v2.22754h-3.24512v1.5h3.24512v3.25977h1.5v-3.25977h3.24609v-1.5h-3.24609v-2.22754c1.02307-.15625,1.96997-.61621,2.71484-1.36133.92578-.92578,1.43555-2.15625,1.43555-3.46484,0-1.05859-.34772-2.05664-.96454-2.89258l3.31415-3.43555v3.8252h1.5V1.625h-6.43359ZM12.47949,12.96582c-1.2832,1.28418-3.52344,1.28418-4.80859,0-.64258-.64258-.99609-1.49707-.99609-2.4043,0-.9082.35352-1.7627.99609-2.40527.64258-.6416,1.49609-.99512,2.4043-.99512s1.7627.35352,2.4043.99512c.64258.64258.99609,1.49707.99609,2.40527,0,.90723-.35352,1.76172-.99609,2.4043Z"/></svg>

<svg xmlns="http://www.w3.org/2000/svg" viewBox="0 0 24 24"><path d="M12.3916,1.625v1.5h3.91785L12.94836,6.60938A4.89122,4.89122,0,1,0,9.3252,15.3877v2.22753H6.08008v1.5H9.3252V22.375h1.5V19.11523h3.24609v-1.5H10.8252V15.3877A4.864,4.864,0,0,0,14.01105,7.669L17.3252,4.2334V8.05859h1.5V1.625Zm.08789,11.34082a3.48251,3.48251,0,0,1-4.80859,0,3.4004,3.4004,0,1,1,4.80859,0Z" fill="#171717"/></svg>
